resources/haticons/SVG/wolfram.svg

<svg xmlns="http://www.w3.org/2000/svg" width="24" height="24"><path fill="#d10" d="M20.105 12.001l3.307-3.708-4.854-1.059.495-4.944-4.55 1.996L12 0 9.495 4.287 4.947 2.291l.494 4.944L.587 8.289l3.305 3.707-3.305 3.713 4.854 1.053-.5 4.945 4.553-1.994L12 24l2.504-4.287 4.55 1.994-.495-4.938 4.854-1.06zm1.605 2.792l-2.861-.982-1.899-2.471 2.526.942zm.459-6.096l-2.602 2.918-3.066-1.141 1.844-2.612zm-4.288-1.324l-1.533 2.179.088-3.162 1.788-2.415zm-3.304-2.399l3.091-1.354L15.9 5.998l-2.943 1.049zm1.187 1.772l-.096 3.652-3.341 1.12V7.969zM12 1.308l1.969 3.371L12 7.199l-1.971-2.521zM9.423 4.974l1.619 2.072-2.948-1.048L6.332 3.62zm2.245 2.995v3.549l-3.335-1.12-.102-3.652zM7.564 6.39l.086 3.162-1.532-2.179-.341-3.397zM1.83 8.692l3.824-.83 1.839 2.612-3.065 1.136zm2.694 3.585l2.526-.937-1.9 2.471-2.861.977zm-2.093 3.159l2.929-1 3.045.896-2.622.837zm3.28 5.212l.392-3.896 3.111-.982.082 3.31zm3.691-5.708l-3.498-1.03 2.226-2.892 3.335 1.126zm2.266 7.191l-1.711-2.934-.066-2.771 1.777 2.597zm-1.73-6.8L12 12.532l2.063 2.799L12 18.336zm4.104 3.866l-1.715 2.934v-3.107l1.782-2.597zm-1.514-7.052l3.341-1.126 2.221 2.892-3.499 1.03zm2.175 6.935l.077-3.31 3.116.982.386 3.901zm3.514-2.912l-2.625-.837 3.049-.896 2.928 1.003z"/></svg>

<!-- Generated by IcoMoon.io -->
<svg version="1.1" xmlns="http://www.w3.org/2000/svg" width="24" height="24" viewBox="0 0 24 24">
<title>wolfram</title>
<path fill="#d10" d="M20.105 12.001l3.307-3.708-4.854-1.059 0.495-4.944-4.55 1.996-2.503-4.286-2.505 4.287-4.548-1.996 0.494 4.944-4.854 1.054 3.305 3.707-3.305 3.713 4.854 1.053-0.5 4.945 4.553-1.994 2.506 4.287 2.504-4.287 4.55 1.994-0.495-4.938 4.854-1.060zM21.71 14.793l-2.861-0.982-1.899-2.471 2.526 0.942zM22.169 8.697l-2.602 2.918-3.066-1.141 1.844-2.612zM17.881 7.373l-1.533 2.179 0.088-3.162 1.788-2.415zM14.577 4.974l3.091-1.354-1.768 2.378-2.943 1.049zM15.764 6.746l-0.096 3.652-3.341 1.12v-3.549zM12 1.308l1.969 3.371-1.969 2.52-1.971-2.521zM9.423 4.974l1.619 2.072-2.948-1.048-1.762-2.378zM11.668 7.969v3.549l-3.335-1.12-0.102-3.652zM7.564 6.39l0.086 3.162-1.532-2.179-0.341-3.397zM1.83 8.692l3.824-0.83 1.839 2.612-3.065 1.136zM4.524 12.277l2.526-0.937-1.9 2.471-2.861 0.977zM2.431 15.436l2.929-1 3.045 0.896-2.622 0.837zM5.711 20.648l0.392-3.896 3.111-0.982 0.082 3.31zM9.402 14.94l-3.498-1.030 2.226-2.892 3.335 1.126zM11.668 22.131l-1.711-2.934-0.066-2.771 1.777 2.597zM9.938 15.331l2.062-2.799 2.063 2.799-2.063 3.005zM14.042 19.197l-1.715 2.934v-3.107l1.782-2.597zM12.528 12.145l3.341-1.126 2.221 2.892-3.499 1.030zM14.703 19.080l0.077-3.31 3.116 0.982 0.386 3.901zM18.217 16.168l-2.625-0.837 3.049-0.896 2.928 1.003z"></path>
</svg>
